X: 1
T: the Honeymoon Reel
S: Comhaltas Live #269
F: https://media.comhaltas.ie/notation/cltunes/HoneymoonReel.pdf
R: reel
Z: 2016 John Chambers <jc:trillian.mit.edu>
M: C|
L: 1/8
K: G
dc |\
BG~G2 DG~G2 | B{c}def gedc | BG~G2 DG~G2 | BedB A2 dc |
BG~G2 DG~G2 | B{c}def ~g3a | bgaf  gedg  | egdB A2 :|
|: (3(Bcd) |\
e2ef edBA | B{c}def gedc | BG~G2 DG~G2 | BedB A2 Bd |
e2ef edBA | B{c}def ~g3a | bgaf  gedg  | egdB A2 :|

